svgs/thin/dice-six.svg

<svg xmlns="http://www.w3.org/2000/svg" viewBox="0 0 448 512"><!-- Font Awesome Pro 6.0.0-alpha2 by @fontawesome - https://fontawesome.com License - https://fontawesome.com/license (Commercial License) --><path d="M384 32H64C28.625 32 0 60.625 0 96V416C0 451.375 28.625 480 64 480H384C419.375 480 448 451.375 448 416V96C448 60.625 419.375 32 384 32ZM432 416C432 442.467 410.469 464 384 464H64C37.531 464 16 442.467 16 416V96C16 69.533 37.531 48 64 48H384C410.469 48 432 69.533 432 96V416ZM128 320C110.375 320 96 334.375 96 352S110.375 384 128 384S160 369.625 160 352S145.625 320 128 320ZM128 368C119.176 368 112 360.822 112 352S119.176 336 128 336S144 343.178 144 352S136.824 368 128 368ZM128 224C110.375 224 96 238.375 96 256S110.375 288 128 288S160 273.625 160 256S145.625 224 128 224ZM128 272C119.176 272 112 264.822 112 256S119.176 240 128 240S144 247.178 144 256S136.824 272 128 272ZM128 128C110.375 128 96 142.375 96 160S110.375 192 128 192S160 177.625 160 160S145.625 128 128 128ZM128 176C119.176 176 112 168.822 112 160S119.176 144 128 144S144 151.178 144 160S136.824 176 128 176ZM320 320C302.375 320 288 334.375 288 352S302.375 384 320 384S352 369.625 352 352S337.625 320 320 320ZM320 368C311.176 368 304 360.822 304 352S311.176 336 320 336S336 343.178 336 352S328.824 368 320 368ZM320 224C302.375 224 288 238.375 288 256S302.375 288 320 288S352 273.625 352 256S337.625 224 320 224ZM320 272C311.176 272 304 264.822 304 256S311.176 240 320 240S336 247.178 336 256S328.824 272 320 272ZM320 128C302.375 128 288 142.375 288 160S302.375 192 320 192S352 177.625 352 160S337.625 128 320 128ZM320 176C311.176 176 304 168.822 304 160S311.176 144 320 144S336 151.178 336 160S328.824 176 320 176Z "></path></svg>

<svg xmlns="http://www.w3.org/2000/svg" viewBox="0 0 448 512"><!--! Font Awesome Pro 6.0.0-alpha3 by @fontawesome - https://fontawesome.com License - https://fontawesome.com/license (Commercial License) --><path d="M384 32H64C28.63 32 0 60.63 0 96v320c0 35.38 28.62 64 64 64h320c35.38 0 64-28.62 64-64V96C448 60.63 419.4 32 384 32zM432 416c0 26.47-21.53 48-48 48H64c-26.47 0-48-21.53-48-48V96c0-26.47 21.53-48 48-48h320c26.47 0 48 21.53 48 48V416zM128 320c-17.62 0-32 14.38-32 32s14.38 32 32 32s32-14.38 32-32S145.6 320 128 320zM128 368c-8.824 0-16-7.178-16-16s7.176-16 16-16s16 7.178 16 16S136.8 368 128 368zM128 224C110.4 224 96 238.4 96 256s14.38 32 32 32s32-14.38 32-32S145.6 224 128 224zM128 272C119.2 272 112 264.8 112 256S119.2 240 128 240S144 247.2 144 256S136.8 272 128 272zM128 128C110.4 128 96 142.4 96 160s14.38 32 32 32s32-14.38 32-32S145.6 128 128 128zM128 176C119.2 176 112 168.8 112 160S119.2 144 128 144S144 151.2 144 160S136.8 176 128 176zM320 320c-17.62 0-32 14.38-32 32s14.38 32 32 32s32-14.38 32-32S337.6 320 320 320zM320 368c-8.824 0-16-7.178-16-16s7.176-16 16-16s16 7.178 16 16S328.8 368 320 368zM320 224c-17.62 0-32 14.38-32 32s14.38 32 32 32s32-14.38 32-32S337.6 224 320 224zM320 272c-8.824 0-16-7.178-16-16s7.176-16 16-16s16 7.178 16 16S328.8 272 320 272zM320 128c-17.62 0-32 14.38-32 32s14.38 32 32 32s32-14.38 32-32S337.6 128 320 128zM320 176c-8.824 0-16-7.178-16-16s7.176-16 16-16s16 7.178 16 16S328.8 176 320 176z"/></svg>
